fonts/piswpi/uni0053.svg

<?xml version="1.0" encoding="UTF-8" standalone="no"?>
<svg width="500" height="900" version="1.1" id="svg8" sodipodi:docname="uni0053.svg" inkscape:version="1.4.2 (ebf0e940, 2025-05-08)" xmlns:inkscape="http://www.inkscape.org/namespaces/inkscape" xmlns:sodipodi="http://sodipodi.sourceforge.net/DTD/sodipodi-0.dtd" xmlns="http://www.w3.org/2000/svg" xmlns:svg="http://www.w3.org/2000/svg">
    <sodipodi:namedview id="namedview1" pagecolor="#ffffff" bordercolor="#000000" borderopacity="0.25" inkscape:showpageshadow="2" inkscape:pageopacity="0.0" inkscape:pagecheckerboard="0" inkscape:deskcolor="#d1d1d1" inkscape:zoom="0.2989372" inkscape:cx="244.19845" inkscape:cy="451.59987" inkscape:window-width="1080" inkscape:window-height="675" inkscape:window-x="0" inkscape:window-y="25" inkscape:window-maximized="0" inkscape:current-layer="svg8" />
    <defs id="defs8" />
    <path id="path4" d="M 250 200 A 50 50 0 0 0 200 250 A 50 50 0 0 0 250 300 A 50 50 0 0 0 300 250 A 50 50 0 0 0 250 200 z M 391.42188 258.57812 A 50 50 0 0 0 341.42188 308.57812 A 50 50 0 0 0 391.42188 358.57812 A 50 50 0 0 0 441.42188 308.57812 A 50 50 0 0 0 391.42188 258.57812 z M 450 400 A 50 50 0 0 0 400 450 A 50 50 0 0 0 450 500 A 50 50 0 0 0 500 450 A 50 50 0 0 0 450 400 z " />
</svg>

<svg width="500" height="900" xmlns="http://www.w3.org/2000/svg">
    <path d="M250 200a50 50 0 0 0-50 50 50 50 0 0 0 50 50 50 50 0 0 0 50-50 50 50 0 0 0-50-50zm135.824 58.893a50 50 0 0 0-29.758 14.33 50 50 0 0 0 0 70.71 50 50 0 0 0 70.711 0 50 50 0 0 0 14.518-38.921 50 50 0 0 0-14.518-31.79 50 50 0 0 0-40.953-14.33zM450 400a50 50 0 0 0-50 50 50 50 0 0 0 50 50 50 50 0 0 0 50-50 50 50 0 0 0-50-50z"/>
</svg>
